X:2819
T:Chabans'koho Kozachka
S:A. Humenyuk
Q:120
M:2/4
L:1/8
K:AMin
cd ec | fd ec | cd ec | g/2f/2e/2d/2 c2 :: \
K:Gdor
ba bg | c'a bg | fg bg | c'a g2 ::
K:Amin
cdec | fdec | cdec \
|1 g/2f/2e/2d/2 c2 :|2 g/2f/2e/2d/2 cd | \
ecdB | e/2d/2c/2B/2 AA | ecdB | e/2d/2c/2B/2 A2 | 
^GGEG | ABcA | ^GGEG | A2A2 | \
^GGEG | AB d/2c/2B/2A/2 | ^GGEG | A2A2 |]


